polaris-icons/icons/new-icons/RedoMajor.svg

<svg width="20" height="20" viewBox="0 0 20 20" fill="none" xmlns="http://www.w3.org/2000/svg">
<path d="M12.5303 3.71967C12.2374 3.42678 11.7626 3.42678 11.4697 3.71967C11.1768 4.01256 11.1768 4.48744 11.4697 4.78033L13.1893 6.5H9.25C6.48858 6.5 4.25 8.73858 4.25 11.5C4.25 14.2614 6.48858 16.5 9.25 16.5H10.75C11.1642 16.5 11.5 16.1642 11.5 15.75C11.5 15.3358 11.1642 15 10.75 15H9.25C7.317 15 5.75 13.433 5.75 11.5C5.75 9.567 7.317 8 9.25 8H13.1893L11.4697 9.71967C11.1768 10.0126 11.1768 10.4874 11.4697 10.7803C11.7626 11.0732 12.2374 11.0732 12.5303 10.7803L15.5303 7.78033C15.8232 7.48744 15.8232 7.01256 15.5303 6.71967L12.5303 3.71967Z" fill="#4A4A4A"/>
</svg>

<svg viewBox="0 0 20 20" xmlns="http://www.w3.org/2000/svg"><path d="M12.53 3.72a.75.75 0 1 0-1.06 1.06l1.72 1.72h-3.94a5 5 0 0 0 0 10h1.5a.75.75 0 0 0 0-1.5h-1.5a3.5 3.5 0 1 1 0-7h3.94l-1.72 1.72a.75.75 0 1 0 1.06 1.06l3-3a.75.75 0 0 0 0-1.06l-3-3Z" fill="#5C5F62"/></svg>
